X: 3
T: The Old Copperplate
R: reel
M: 4/4
L: 1/8
K: Ador
|:A2eA cAeA|aged cAFA|G2dG BGdG|gedc BAGB|
A2eA cAeA|aged cAGB|ABcd edeg|aged cAA2:|
|:ageg a2eg|aged cAAe|gfef g2ef|gfaf gedg|
ageg a2eg|aged cAG2|ABcd edeg|aged cAA2:|


Tune 410	Setting 27921

